X:510
T:Polska # 510
T: efter fadern
Q: 120
M:3/4
L:1/16
K: G
D3D G3A B4| B3A G3B d4| d3d cec2 A4| A3G FAF2 D4| D3D G3A B4|
B3A G3B d4| d3d cec2 A2G2| FDF2A4G4:: (3d2B2d2 (3c2A2c2 B2G2| (3B2G2B2 (3d2B2d2 g4|
(3d2B2d2 (3c2A2c2 (3B2G2B2| (3A2F2A2 G2D2 B,2D2| (3d2B2d2 (3c2A2c2 B2G2| (3B2G2B2 (3d2B2d2 g4|
(3d2B2d2 (3c2A2c2 (3B2G2B2| A2F2 F2G2 G4 ::[K:D] b3g f3g a4| gagf g2b2 e2g2|
fgfe f2a2 d2f2| e3d cec2 A4| b3g f3g a4| gagf g2b2 e2g2| fgfe f2a2 d2f2|
e3c c2d2 d4 :|

